; generated by Slic3r 1.2.9 on 2021-02-17 at 14:22:57

; external perimeters extrusion width = 0.41mm
; perimeters extrusion width = 0.43mm
; infill extrusion width = 0.43mm
; solid infill extrusion width = 0.43mm
; top infill extrusion width = 0.43mm



;#############################################################

G21 ; set units to millimeters
G90 ; use absolute coordinates
M82 ; use absolute distances for extrusion

; Code preprime
T0
G92 X-4 Y0 Z10 E0
G1 F150 
G1 E0.15
G4 P3000
G1 Z0
G92 E0
T0
M302 P1




;code for drawing line sof tumors at 3mm/s 
;E.001 per 1mm of space movment
;E0.03 = 1uL with lavendar tip for generated code


;################# FIRST GEL #####################

;start printing first curve 

G4 P500
G1 X-4.000 Y-0.000 F150.000                     ;start curve
G1 X-3.353 Y-0.971 E0.01447 F120.000
G1 X-3.123 Y-1.269 E0.01914
G1 X-2.863 Y-1.556 E0.02394
G1 X-2.637 Y-1.758 E0.02771
G1 X-2.405 Y-1.903 E0.03109
G1 X-2.203 Y-1.980 E0.03377
G1 X-1.998 Y-2.003 E0.03633
G1 X-1.756 Y-1.967 E0.03936
G1 X-1.547 Y-1.877 E0.04219
G1 X-1.301 Y-1.709 E0.04588
G1 X-1.055 Y-1.476 E0.05009
G1 X-0.815 Y-1.197 E0.05464
G1 X-0.578 Y-0.873 E0.05963
G1 X0.408 Y0.623 E0.08184
G1 X0.852 Y1.240 E0.09127
G1 X1.062 Y1.482 E0.09525
G1 X1.302 Y1.709 E0.09935
G1 X1.546 Y1.876 E0.10301
G1 X1.728 Y1.954 E0.10547
G1 X1.965 Y2.001 E0.10846
G1 X2.202 Y1.978 E0.11142
G1 X2.386 Y1.876 E0.11430
G1 X2.632 Y1.709 E0.11750
G1 X2.842 Y1.482 E0.12080
G1 X3.100 Y1.240 E0.12420
G4 P500
G1 Z3 F500
G1 Z8 X4 Y0
G92 E0


;################# SECOND GEL #####################

G91 ; use relative coordinates

G1 X6.65 
G1 Z-8.1
G4 P500

G90 ; use absolute coordinates
G92 X-4 Y0 Z0 E0

;start printing curve
G4 P500
G1 X-4.000 Y-0.000 F150.000                     ;start curve
G1 X-3.353 Y-0.971 E0.01447 F120.000
G1 X-3.123 Y-1.269 E0.01914
G1 X-2.863 Y-1.556 E0.02394
G1 X-2.637 Y-1.758 E0.02771
G1 X-2.405 Y-1.903 E0.03109
G1 X-2.203 Y-1.980 E0.03377
G1 X-1.998 Y-2.003 E0.03633
G1 X-1.756 Y-1.967 E0.03936
G1 X-1.547 Y-1.877 E0.04219
G1 X-1.301 Y-1.709 E0.04588
G1 X-1.055 Y-1.476 E0.05009
G1 X-0.815 Y-1.197 E0.05464
G1 X-0.578 Y-0.873 E0.05963
G1 X0.408 Y0.623 E0.08184
G1 X0.852 Y1.240 E0.09127
G1 X1.062 Y1.482 E0.09525
G1 X1.302 Y1.709 E0.09935
G1 X1.546 Y1.876 E0.10301
G1 X1.728 Y1.954 E0.10547
G1 X1.965 Y2.001 E0.10846
G1 X2.202 Y1.978 E0.11142
G1 X2.386 Y1.876 E0.11430
G1 X2.632 Y1.709 E0.11750
G1 X2.842 Y1.482 E0.12080
G1 X3.100 Y1.240 E0.12420
G4 P500
G1 Z3 F500
G1 Z8 X4 Y0
G92 E0


;################# Third GEL #####################


G91 ; use relative coordinates

G1 X6.65 
G1 Z-8.1
G4 P500

G90 ; use absolute coordinates
G92 X-4 Y0 Z0 E0

;start printing curve
G4 P500
G1 X-4.000 Y-0.000 F150.000                     ;start curve
G1 X-3.353 Y-0.971 E0.01447 F120.000
G1 X-3.123 Y-1.269 E0.01914
G1 X-2.863 Y-1.556 E0.02394
G1 X-2.637 Y-1.758 E0.02771
G1 X-2.405 Y-1.903 E0.03109
G1 X-2.203 Y-1.980 E0.03377
G1 X-1.998 Y-2.003 E0.03633
G1 X-1.756 Y-1.967 E0.03936
G1 X-1.547 Y-1.877 E0.04219
G1 X-1.301 Y-1.709 E0.04588
G1 X-1.055 Y-1.476 E0.05009
G1 X-0.815 Y-1.197 E0.05464
G1 X-0.578 Y-0.873 E0.05963
G1 X0.408 Y0.623 E0.08184
G1 X0.852 Y1.240 E0.09127
G1 X1.062 Y1.482 E0.09525
G1 X1.302 Y1.709 E0.09935
G1 X1.546 Y1.876 E0.10301
G1 X1.728 Y1.954 E0.10547
G1 X1.965 Y2.001 E0.10846
G1 X2.202 Y1.978 E0.11142
G1 X2.386 Y1.876 E0.11430
G1 X2.632 Y1.709 E0.11750
G1 X2.842 Y1.482 E0.12080
G1 X3.100 Y1.240 E0.12420
G4 P500
G1 Z3 F500
G1 Z8 X4 Y0
G92 E0


;################# Fourth GEL #####################


G91 ; use relative coordinates

G1 X6.65 
G1 Z-8.1
G4 P500

G90 ; use absolute coordinates
G92 X-4 Y0 Z0 E0

;start printing curve
G4 P500
G1 X-4.000 Y-0.000 F150.000                     ;start curve
G1 X-3.353 Y-0.971 E0.01447 F120.000
G1 X-3.123 Y-1.269 E0.01914
G1 X-2.863 Y-1.556 E0.02394
G1 X-2.637 Y-1.758 E0.02771
G1 X-2.405 Y-1.903 E0.03109
G1 X-2.203 Y-1.980 E0.03377
G1 X-1.998 Y-2.003 E0.03633
G1 X-1.756 Y-1.967 E0.03936
G1 X-1.547 Y-1.877 E0.04219
G1 X-1.301 Y-1.709 E0.04588
G1 X-1.055 Y-1.476 E0.05009
G1 X-0.815 Y-1.197 E0.05464
G1 X-0.578 Y-0.873 E0.05963
G1 X0.408 Y0.623 E0.08184
G1 X0.852 Y1.240 E0.09127
G1 X1.062 Y1.482 E0.09525
G1 X1.302 Y1.709 E0.09935
G1 X1.546 Y1.876 E0.10301
G1 X1.728 Y1.954 E0.10547
G1 X1.965 Y2.001 E0.10846
G1 X2.202 Y1.978 E0.11142
G1 X2.386 Y1.876 E0.11430
G1 X2.632 Y1.709 E0.11750
G1 X2.842 Y1.482 E0.12080
G1 X3.100 Y1.240 E0.12420
G4 P500
G1 Z3 F500
G1 Z8 X4 Y0
G92 E0



;################# FIFTH GEL #####################

G91 ; use relative coordinates

G1 Y-11 X-8
G1 Z-8.1
G4 P500

G90 ; use absolute coordinates
G92 X-4 Y0 Z0 E0

;start printing curve
G4 P500
G1 X-4.000 Y-0.000 F150.000                     ;start curve
G1 X-3.353 Y-0.971 E0.01447 F120.000
G1 X-3.123 Y-1.269 E0.01914
G1 X-2.863 Y-1.556 E0.02394
G1 X-2.637 Y-1.758 E0.02771
G1 X-2.405 Y-1.903 E0.03109
G1 X-2.203 Y-1.980 E0.03377
G1 X-1.998 Y-2.003 E0.03633
G1 X-1.756 Y-1.967 E0.03936
G1 X-1.547 Y-1.877 E0.04219
G1 X-1.301 Y-1.709 E0.04588
G1 X-1.055 Y-1.476 E0.05009
G1 X-0.815 Y-1.197 E0.05464
G1 X-0.578 Y-0.873 E0.05963
G1 X0.408 Y0.623 E0.08184
G1 X0.852 Y1.240 E0.09127
G1 X1.062 Y1.482 E0.09525
G1 X1.302 Y1.709 E0.09935
G1 X1.546 Y1.876 E0.10301
G1 X1.728 Y1.954 E0.10547
G1 X1.965 Y2.001 E0.10846
G1 X2.202 Y1.978 E0.11142
G1 X2.386 Y1.876 E0.11430
G1 X2.632 Y1.709 E0.11750
G1 X2.842 Y1.482 E0.12080
G1 X3.100 Y1.240 E0.12420
G4 P500
G1 Z3 F500
G1 Z8 X4 Y0
G92 E0

;################# Sixth GEL #####################


G91 ; use relative coordinates

G1 X-22.65 
G1 Z-8.1
G4 P500

G90 ; use absolute coordinates
G92 X-4 Y0 Z0 E0

;start printing curve
G4 P500
G1 X-4.000 Y-0.000 F150.000                     ;start curve
G1 X-3.353 Y-0.971 E0.01447 F120.000
G1 X-3.123 Y-1.269 E0.01914
G1 X-2.863 Y-1.556 E0.02394
G1 X-2.637 Y-1.758 E0.02771
G1 X-2.405 Y-1.903 E0.03109
G1 X-2.203 Y-1.980 E0.03377
G1 X-1.998 Y-2.003 E0.03633
G1 X-1.756 Y-1.967 E0.03936
G1 X-1.547 Y-1.877 E0.04219
G1 X-1.301 Y-1.709 E0.04588
G1 X-1.055 Y-1.476 E0.05009
G1 X-0.815 Y-1.197 E0.05464
G1 X-0.578 Y-0.873 E0.05963
G1 X0.408 Y0.623 E0.08184
G1 X0.852 Y1.240 E0.09127
G1 X1.062 Y1.482 E0.09525
G1 X1.302 Y1.709 E0.09935
G1 X1.546 Y1.876 E0.10301
G1 X1.728 Y1.954 E0.10547
G1 X1.965 Y2.001 E0.10846
G1 X2.202 Y1.978 E0.11142
G1 X2.386 Y1.876 E0.11430
G1 X2.632 Y1.709 E0.11750
G1 X2.842 Y1.482 E0.12080
G1 X3.100 Y1.240 E0.12420
G4 P500
G1 Z3 F500
G1 Z8 X4 Y0
G92 E0


;################# Seventh GEL #####################


G91 ; use relative coordinates

G1 X-22.65 
G1 Z-8.1
G4 P500

G90 ; use absolute coordinates
G92 X-4 Y0 Z0 E0

;start printing curve
G4 P500
G1 X-4.000 Y-0.000 F150.000                     ;start curve
G1 X-3.353 Y-0.971 E0.01447 F120.000
G1 X-3.123 Y-1.269 E0.01914
G1 X-2.863 Y-1.556 E0.02394
G1 X-2.637 Y-1.758 E0.02771
G1 X-2.405 Y-1.903 E0.03109
G1 X-2.203 Y-1.980 E0.03377
G1 X-1.998 Y-2.003 E0.03633
G1 X-1.756 Y-1.967 E0.03936
G1 X-1.547 Y-1.877 E0.04219
G1 X-1.301 Y-1.709 E0.04588
G1 X-1.055 Y-1.476 E0.05009
G1 X-0.815 Y-1.197 E0.05464
G1 X-0.578 Y-0.873 E0.05963
G1 X0.408 Y0.623 E0.08184
G1 X0.852 Y1.240 E0.09127
G1 X1.062 Y1.482 E0.09525
G1 X1.302 Y1.709 E0.09935
G1 X1.546 Y1.876 E0.10301
G1 X1.728 Y1.954 E0.10547
G1 X1.965 Y2.001 E0.10846
G1 X2.202 Y1.978 E0.11142
G1 X2.386 Y1.876 E0.11430
G1 X2.632 Y1.709 E0.11750
G1 X2.842 Y1.482 E0.12080
G1 X3.100 Y1.240 E0.12420
G4 P500
G1 Z3 F500
G1 Z8 X4 Y0
G92 E0

;################# Eigth GEL #####################

G91 ; use relative coordinates

G1 X-22.65 
G1 Z-8.1
G4 P500

G90 ; use absolute coordinates
G92 X-4 Y0 Z0 E0

;start printing curve

G4 P500
G1 X-4.000 Y-0.000 F150.000                     ;start curve
G1 X-3.353 Y-0.971 E0.01447 F120.000
G1 X-3.123 Y-1.269 E0.01914
G1 X-2.863 Y-1.556 E0.02394
G1 X-2.637 Y-1.758 E0.02771
G1 X-2.405 Y-1.903 E0.03109
G1 X-2.203 Y-1.980 E0.03377
G1 X-1.998 Y-2.003 E0.03633
G1 X-1.756 Y-1.967 E0.03936
G1 X-1.547 Y-1.877 E0.04219
G1 X-1.301 Y-1.709 E0.04588
G1 X-1.055 Y-1.476 E0.05009
G1 X-0.815 Y-1.197 E0.05464
G1 X-0.578 Y-0.873 E0.05963
G1 X0.408 Y0.623 E0.08184
G1 X0.852 Y1.240 E0.09127
G1 X1.062 Y1.482 E0.09525
G1 X1.302 Y1.709 E0.09935
G1 X1.546 Y1.876 E0.10301
G1 X1.728 Y1.954 E0.10547
G1 X1.965 Y2.001 E0.10846
G1 X2.202 Y1.978 E0.11142
G1 X2.386 Y1.876 E0.11430
G1 X2.632 Y1.709 E0.11750
G1 X2.842 Y1.482 E0.12080
G1 X3.100 Y1.240 E0.12420
G4 P500
G1 Z3 F500
G1 Z8 X4 Y0
G92 E0

G1 Y60 F600                         ; Move to photocrosslinking spot

; filament used = 0.1mm (0.0cm3)

; avoid_crossing_perimeters = 1
; bed_shape = -81x-81,81x-81,81x81,-81x81
; bed_temperature = 0
; before_layer_gcode = 
; bridge_acceleration = 0
; bridge_fan_speed = 100
; brim_width = 0
; complete_objects = 0
; cooling = 1
; default_acceleration = 0
; disable_fan_first_layers = 3
; duplicate_distance = 6
; end_gcode = G92 Z0\nG1 Z10 F500\nG92 Z0\nM84       ;Motors off
; extruder_clearance_height = 20
; extruder_clearance_radius = 20
; extruder_offset = 0x0
; extrusion_axis = E
; extrusion_multiplier = 3
; fan_always_on = 0
; fan_below_layer_time = 60
; filament_colour = #FFFFFF
; filament_diameter = 4.69
; first_layer_acceleration = 0
; first_layer_bed_temperature = 0
; first_layer_extrusion_width = 200%
; first_layer_speed = 2.5
; first_layer_temperature = 0
; gcode_arcs = 0
; gcode_comments = 0
; gcode_flavor = reprap
; infill_acceleration = 0
; infill_first = 0
; layer_gcode = 
; max_fan_speed = 100
; max_print_speed = 80
; max_volumetric_speed = 0
; min_fan_speed = 35
; min_print_speed = 10
; min_skirt_length = 0
; notes = 
; nozzle_diameter = 0.41
; only_retract_when_crossing_perimeters = 1
; ooze_prevention = 0
; output_filename_format = [input_filename_base].gcode
; perimeter_acceleration = 0
; post_process = 
; pressure_advance = 0
; resolution = 0
; retract_before_travel = 2
; retract_layer_change = 0
; retract_length = 0
; retract_length_toolchange = 10
; retract_lift = 0.15
; retract_restart_extra = 0
; retract_restart_extra_toolchange = 0
; retract_speed = 40
; skirt_distance = 6
; skirt_height = 1
; skirts = 0
; slowdown_below_layer_time = 5
; spiral_vase = 0
; standby_temperature_delta = -5
; start_gcode = T0\nG92 X0 Y0 Z10 E0\nG1 E0.09\nG92 E0\nT0\nM302 P1
; temperature = 0
; threads = 2
; toolchange_gcode = 
; travel_speed = 2.5
; use_firmware_retraction = 0
; use_relative_e_distances = 0
; use_volumetric_e = 0
; vibration_limit = 0
; wipe = 0
; z_offset = 0
; dont_support_bridges = 1
; extrusion_width = 0
; first_layer_height = 0.2
; infill_only_where_needed = 0
; interface_shells = 0
; layer_height = 0.4
; raft_layers = 0
; seam_position = aligned
; support_material = 0
; support_material_angle = 0
; support_material_contact_distance = 0.2
; support_material_enforce_layers = 0
; support_material_extruder = 1
; support_material_extrusion_width = 0
; support_material_interface_extruder = 1
; support_material_interface_layers = 3
; support_material_interface_spacing = 0
; support_material_interface_speed = 100%
; support_material_pattern = pillars
; support_material_spacing = 2.5
; support_material_speed = 60
; support_material_threshold = 0
; xy_size_compensation = 0
; bottom_solid_layers = 0
; bridge_flow_ratio = 1
; bridge_speed = 2.5
; external_fill_pattern = rectilinear
; external_perimeter_extrusion_width = 0
; external_perimeter_speed = 2.5
; external_perimeters_first = 0
; extra_perimeters = 1
; fill_angle = 45
; fill_density = 40%
; fill_pattern = rectilinear
; gap_fill_speed = 2.5
; infill_every_layers = 10
; infill_extruder = 1
; infill_extrusion_width = 0
; infill_overlap = 15%
; infill_speed = 2.5
; overhangs = 1
; perimeter_extruder = 1
; perimeter_extrusion_width = 0
; perimeter_speed = 2.5
; perimeters = 1
; small_perimeter_speed = 2.5
; solid_infill_below_area = 70
; solid_infill_every_layers = 0
; solid_infill_extruder = 1
; solid_infill_extrusion_width = 0
; solid_infill_speed = 20
; thin_walls = 1
; top_infill_extrusion_width = 0
; top_solid_infill_speed = 15
; top_solid_layers = 0
