; generated by Slic3r 1.2.9 on 2021-03-16 at 11:21:49

; external perimeters extrusion width = 0.20mm
; perimeters extrusion width = 0.21mm
; infill extrusion width = 0.21mm
; solid infill extrusion width = 0.21mm
; top infill extrusion width = 0.21mm

M107
T0
G92 X-3 Y-3 Z10 E0
G1 E0.09
G4 P3000
G92 E0
T0
M302 P1
G21 ; set units to millimeters
G90 ; use absolute coordinates
M82 ; use absolute distances for extrusion
G92 E0
G1 Z0.190 F300.000
G1 X-2.897 Y-2.767 F300.000
G1 X-2.897 Y-2.342 E0.00475 F150.000
G1 X-3.096 Y-2.167 E0.00772
G1 X-3.218 Y-2.111 E0.00922
G1 X-3.339 Y-2.121 E0.01058
G1 X-3.427 Y-2.163 E0.01166
G1 X-3.445 Y-2.232 E0.01246
G1 X-3.422 Y-2.356 E0.01388
G1 X-3.380 Y-2.442 E0.01495
G1 X-3.269 Y-2.566 E0.01681
G1 X-3.121 Y-2.666 E0.01882
G1 X-2.924 Y-2.754 E0.02122
G1 Z0.380 F300.000
G1 X-3.738 Y-1.944 F300.000
G1 X-3.764 Y-2.064 E0.02189 F150.000
G1 X-3.736 Y-2.482 E0.02418
G1 X-3.718 Y-2.565 E0.02464
G1 X-3.578 Y-2.765 E0.02597
G1 X-3.465 Y-2.854 E0.02676
G1 X-3.087 Y-3.076 E0.02915
G1 X-2.880 Y-3.243 E0.03060
G1 X-2.534 Y-3.454 E0.03281
G1 X-2.302 Y-3.647 E0.03446
G1 X-1.950 Y-3.988 E0.03713
G1 X-1.771 Y-4.123 E0.03835
G1 X-1.423 Y-4.331 E0.04057
G1 X-1.423 Y-3.177 E0.04686
G1 X-1.909 Y-2.959 E0.04977
G1 X-2.112 Y-2.835 E0.05107
G1 X-2.429 Y-2.512 E0.05354
G1 X-2.607 Y-2.383 E0.05474
G1 X-2.732 Y-2.293 E0.05555 F150.000
G1 X-2.932 Y-2.084 E0.05707
G1 X-3.140 Y-1.927 E0.05844
G1 X-3.291 Y-1.874 E0.05928
G1 X-3.468 Y-1.858 E0.06021
G1 X-3.593 Y-1.867 E0.06089 F150.000
G1 X-3.719 Y-1.921 E0.06164
G1 X-3.580 Y-2.502 F300.000
G1 X-3.293 Y-2.789 E0.06454 F150.000
G1 X-1.698 Y-3.202 F300.000
G1 X-1.532 Y-3.368 E0.06621 F150.000
G1 X-1.532 Y-3.762 E0.06902
G1 X-3.278 Y-2.016 E0.08665
G1 X-3.653 Y-2.036 E0.08932
G1 X-1.706 Y-3.982 E0.10896
G1 Z0.570 F300.000
G92 E0
G1 X-0.038 Y4.004 F300.000
G1 X-0.038 Y4.331 E0.00178 F150.000
G1 X-0.316 Y4.343 E0.00330
G1 X-0.490 Y4.394 E0.00429
G1 X-0.800 Y4.558 E0.00620
G1 X-0.893 Y4.574 E0.00672
G1 X-1.024 Y4.566 E0.00743
G1 X-1.183 Y4.473 E0.00844
G1 X-1.205 Y4.394 E0.00889
G1 X-1.187 Y4.050 E0.01076
G1 X-0.988 Y3.987 E0.01190
G1 X-0.587 Y3.964 E0.01409
G1 X-0.068 Y4.002 E0.01693
G1 X-0.121 Y4.167 F300.000
G1 X-0.405 Y4.162 E0.01852 F150.000
G1 X-0.514 Y4.220 F300.000
G1 X-0.659 Y4.075 E0.02309 F150.000
G1 X-0.918 Y4.460 E0.03345
G1 X-1.092 Y4.285 E0.03898
G92 E0
G1 X-1.224 Y3.946 F300.000
G1 X-2.587 Y1.244 F300.000
G1 X-2.410 Y1.179 F300.000
G1 X-3.287 Y-1.700 F300.000
G1 X-3.813 Y-1.841 F300.000
G1 X-3.851 Y-2.095 E0.00135 F150.000
G1 X-3.855 Y-2.330 E0.00258
G1 X-3.802 Y-2.679 E0.00444
G1 X-3.750 Y-2.788 E0.00507
G1 X-3.608 Y-2.954 E0.00622
G1 X-3.300 Y-3.179 E0.00822
G1 X-2.950 Y-3.492 E0.01078 F150.000
G1 X-2.435 Y-3.797 E0.01405
G1 X-2.008 Y-4.076 E0.01673 F150.000
G1 X-1.547 Y-4.325 E0.01948
G1 X-1.343 Y-4.465 E0.02078
G1 X-1.223 Y-4.518 E0.02147
G1 X-1.079 Y-4.582 E0.02233 F150.000
G1 X-0.750 Y-4.634 E0.02415
G1 X-0.622 Y-4.623 E0.02485
G1 X-0.038 Y-4.482 E0.02812
G1 X-0.038 Y-3.399 E0.03403
G1 X-0.470 Y-3.262 E0.03650
G1 X-1.581 Y-2.846 E0.04297
G1 X-1.778 Y-2.797 E0.04408
G1 X-2.060 Y-2.727 E0.04561 F150.000
G1 X-2.414 Y-2.475 E0.04789
G1 X-2.655 Y-2.413 E0.04920
G1 X-2.732 Y-2.360 E0.04969
G1 X-3.035 Y-1.976 E0.05227
G1 X-3.166 Y-1.858 E0.05319
G1 X-3.294 Y-1.804 E0.05392
G1 X-3.563 Y-1.783 E0.05533
G1 X-3.671 Y-1.789 E0.05590
G1 X-3.785 Y-1.831 E0.05654
G1 X-3.745 Y-2.380 F300.000
G1 X-0.712 Y-4.509 E0.08110 F150.000
G1 X-0.336 Y-3.451 F300.000
G1 X-0.139 Y-3.589 E0.08270 F150.000
G1 X-0.139 Y-3.920 E0.08489
G1 X-1.303 Y-3.103 E0.09431
G1 X-2.139 Y-2.846 F300.000
G1 X-0.139 Y-4.250 E0.11051 F150.000
G1 X-0.333 Y-4.444 E0.11233
G1 X-3.748 Y-2.048 E0.13998
G1 X-3.460 Y-1.919 E0.14207
G1 X-3.010 Y-2.235 E0.14572
G1 X-3.043 Y-3.203 F300.000
G1 X-2.570 Y-3.535 E0.14955 F150.000
M106 S214.2
G1 Z0.760 F300.000
G92 E0
G1 X-1.183 Y4.270 F300.000
G1 X-1.129 Y4.122 E0.00083 F150.000
G1 X-1.016 Y4.047 E0.00154
G1 X-0.819 Y3.979 E0.00264
G1 X-0.147 Y3.818 E0.00627
G1 X0.042 Y3.810 E0.00726
M106 S255
G1 X0.273 Y3.800 E0.00852 F150.000
G1 X0.602 Y3.725 E0.01036
G1 X1.346 Y3.654 E0.01444
G1 X1.346 Y4.251 E0.01769
G1 X0.785 Y4.426 E0.02090
G1 X0.355 Y4.500 E0.02328
G1 X0.162 Y4.505 E0.02433
M106 S214.2
G1 X-0.356 Y4.518 E0.02705 F150.000
G1 X-0.773 Y4.633 E0.02933
G1 X-0.932 Y4.617 E0.03016
G1 X-1.121 Y4.523 E0.03128
G1 X-1.168 Y4.450 E0.03173
G1 X-1.180 Y4.300 E0.03252
G1 X-0.889 Y4.149 F300.000
M106 S255
G1 X-1.064 Y4.324 E0.03440 F150.000
G1 X-0.856 Y4.520 E0.03656
G1 X-0.322 Y3.986 E0.04229
G1 X-0.323 Y4.392 E0.04536
G1 X0.152 Y3.917 E0.05045
G1 X0.628 Y3.844 E0.05410
G1 X0.076 Y4.397 E0.06002
G1 X0.527 Y4.350 E0.06345
G1 X1.082 Y3.794 E0.06941
G1 X1.237 Y4.044 E0.07163
G1 X1.080 Y4.200 E0.07331
M106 S214.2
G92 E0
G1 X1.446 Y3.538 F300.000
G1 X0.336 Y0.527 F300.000
G1 X0.721 Y-0.377 F300.000
G1 X1.033 Y-0.717 F300.000
G1 X1.229 Y-0.895 F300.000
G1 X1.446 Y-3.101 F300.000
G1 X1.346 Y-3.209 F300.000
M106 S255
G1 X0.732 Y-3.255 E0.00336 F150.000
G1 X0.359 Y-3.227 E0.00540
G1 X0.137 Y-3.172 E0.00664
G1 X-0.582 Y-2.922 E0.01080
G1 X-0.981 Y-2.855 E0.01301
M106 S214.2
G1 X-1.224 Y-2.837 E0.01429 F150.000
G1 X-1.699 Y-2.716 E0.01686
G1 X-1.983 Y-2.678 E0.01837
G1 X-2.296 Y-2.545 E0.02015
G1 X-2.376 Y-2.538 E0.02057
G1 X-2.592 Y-2.574 E0.02172
G1 X-2.684 Y-2.563 E0.02221
G1 X-2.785 Y-2.506 E0.02282
G1 X-2.855 Y-2.424 E0.02339
G1 X-3.000 Y-2.150 E0.02501
G1 X-3.096 Y-2.044 E0.02577
G1 X-3.297 Y-1.909 E0.02704
G1 X-3.423 Y-1.865 E0.02774
G1 X-3.550 Y-1.859 E0.02841
G1 X-3.676 Y-1.885 E0.02908
G1 X-3.761 Y-1.929 E0.02959
G1 X-3.834 Y-1.999 E0.03012
G1 X-3.892 Y-2.148 E0.03096
G1 X-3.911 Y-2.426 E0.03242
G1 X-3.884 Y-2.673 E0.03372
G1 X-3.796 Y-2.939 E0.03520
G1 X-3.707 Y-3.062 E0.03600
G1 X-2.983 Y-3.686 E0.04102
G1 X-2.580 Y-3.894 E0.04340
G1 X-2.214 Y-4.008 E0.04542
G1 X-1.562 Y-4.341 E0.04926
G1 X-1.363 Y-4.474 E0.05052
G1 X-1.145 Y-4.589 E0.05181
G1 X-0.835 Y-4.663 E0.05349
G1 X-0.589 Y-4.661 E0.05478
G1 X-0.088 Y-4.565 E0.05746
G1 X0.162 Y-4.491 E0.05883
M106 S255
G1 X0.649 Y-4.321 E0.06164 F150.000
G1 X0.881 Y-4.197 E0.06308
G1 X1.020 Y-4.100 E0.06400
G1 X1.346 Y-3.813 E0.06637
G1 X1.346 Y-3.239 E0.06950
M106 S214.2
G1 X1.059 Y-3.356 F300.000
M106 S255
G1 X1.252 Y-3.446 E0.07087 F150.000
G1 X1.244 Y-3.736 E0.07272
G1 X0.459 Y-3.370 E0.07827
M106 S214.2
G1 X0.807 Y-4.121 F300.000
M106 S255
G1 X-1.987 Y-2.818 E0.09798 F150.000
M106 S214.2
G1 X-0.987 Y-2.990 F300.000
M106 S255
G1 X1.056 Y-3.943 E0.11240 F150.000
M106 S214.2
G1 X0.485 Y-4.265 F300.000
M106 S255
G1 X-3.808 Y-2.263 E0.14271 F150.000
G1 X-3.706 Y-2.016 E0.14441
G1 X-3.038 Y-2.328 E0.14913
M106 S214.2
G1 X-3.797 Y-2.562 F300.000
M106 S255
G1 X0.116 Y-4.387 E0.17675 F150.000
G1 X-0.303 Y-4.486 E0.17951
G1 X-3.650 Y-2.925 E0.20312
M106 S214.2
G1 X-2.740 Y-3.644 F300.000
M106 S255
G1 X-2.558 Y-3.728 E0.20441 F150.000
M106 S214.2
G1 X-1.401 Y-4.268 F300.000
M106 S255
G1 X-0.923 Y-4.491 E0.20778 F150.000
M106 S214.2
M106 S191.25
G1 Z0.950 F300.000
G92 E0
G1 X-1.131 Y4.460 F300.000
G1 X-1.117 Y4.381 E0.00042 F150.000
G1 X-1.069 Y4.333 E0.00078
G1 X-0.644 Y4.198 E0.00312
G1 X-0.078 Y3.840 E0.00664
G1 X0.061 Y3.777 E0.00744
G1 X0.321 Y3.721 E0.00884
G1 X0.641 Y3.521 E0.01082
M106 S255
G1 X0.880 Y3.407 E0.01227 F150.000
G1 X1.339 Y3.304 E0.01483
G1 X1.676 Y3.185 E0.01678
G1 X2.499 Y2.712 E0.02196
G1 X2.730 Y2.511 E0.02363
G1 X2.730 Y3.558 E0.02934
G1 X2.554 Y3.744 E0.03074
G1 X2.161 Y4.055 E0.03347
G1 X1.970 Y4.159 E0.03466
G1 X1.546 Y4.325 E0.03714
M106 S191.25
G1 X1.129 Y4.462 E0.03945 F150.000
G1 X0.807 Y4.545 E0.04120
G1 X0.346 Y4.612 E0.04364
G1 X-0.314 Y4.618 E0.04711
G1 X-0.738 Y4.656 E0.04935
G1 X-1.026 Y4.583 E0.05091
G1 X-1.084 Y4.549 E0.05126
G1 X-1.123 Y4.489 E0.05163
G1 X-0.889 Y4.482 F300.000
M106 S255
G1 X-0.663 Y4.359 E0.05381 F150.000
M106 S191.25
G1 X0.199 Y3.891 F300.000
M106 S255
G1 X-0.258 Y4.139 E0.05822 F150.000
G1 X-0.279 Y4.491 E0.06120
G1 X2.634 Y2.911 E0.08927
M106 S191.25
G1 X2.634 Y3.251 F300.000
M106 S255
G1 X0.392 Y4.468 E0.11087 F150.000
M106 S191.25
G1 X1.678 Y4.110 F300.000
M106 S255
G1 X2.275 Y3.786 E0.11663 F150.000
M106 S191.25
G92 E0
G1 X0.688 Y3.384 F300.000
G1 X-1.064 Y0.593 F300.000
G1 X-1.350 Y0.675 F300.000
G1 X-1.644 Y0.110 F300.000
G1 X-3.264 Y-2.053 F300.000
G1 X-3.492 Y-2.038 F300.000
G1 X-3.659 Y-2.048 E0.00088 F150.000
G1 X-3.749 Y-2.090 E0.00140
G1 X-3.827 Y-2.157 E0.00194
G1 X-3.883 Y-2.265 E0.00258
G1 X-3.919 Y-2.425 E0.00344
G1 X-3.884 Y-2.856 E0.00571
G1 X-3.826 Y-3.025 E0.00665
G1 X-3.684 Y-3.250 E0.00805
G1 X-3.175 Y-3.668 E0.01151
G1 X-2.655 Y-3.950 E0.01462
G1 X-2.515 Y-3.925 E0.01536
G1 X-2.306 Y-3.936 E0.01647
G1 X-2.211 Y-3.966 E0.01699
G1 X-1.573 Y-4.315 E0.02081
G1 X-1.127 Y-4.594 E0.02357
G1 X-1.036 Y-4.628 E0.02408
G1 X-0.831 Y-4.649 E0.02516
G1 X-0.476 Y-4.636 E0.02703
G1 X-0.086 Y-4.573 E0.02911
G1 X0.215 Y-4.494 E0.03074
G1 X0.668 Y-4.318 E0.03329
G1 X1.018 Y-4.117 E0.03541
G1 X1.401 Y-3.798 E0.03804
G1 X1.546 Y-3.721 E0.03890
M106 S255
G1 X2.019 Y-3.468 E0.04182 F150.000
G1 X2.466 Y-3.116 E0.04492
G1 X2.730 Y-2.940 E0.04666
G1 X2.730 Y-2.303 E0.05013
G1 X2.463 Y-2.507 E0.05197
G1 X2.115 Y-2.683 E0.05409
G1 X1.479 Y-2.841 E0.05767
G1 X1.049 Y-2.911 E0.06005
G1 X0.623 Y-2.938 E0.06237
G1 X-0.030 Y-2.898 E0.06594
M106 S191.25
G1 X-0.514 Y-2.805 E0.06853 F150.000
G1 X-1.270 Y-2.836 E0.07251
G1 X-1.686 Y-2.725 E0.07477
G1 X-2.109 Y-2.657 E0.07702
G1 X-2.380 Y-2.674 E0.07845
G1 X-2.685 Y-2.732 E0.08008
G1 X-2.873 Y-2.648 E0.08116
G1 X-3.102 Y-2.349 E0.08314
G1 X-3.269 Y-2.178 E0.08439
G1 X-3.465 Y-2.051 E0.08562
G1 X-3.797 Y-2.330 F300.000
G1 X-3.606 Y-2.138 E0.08727 F150.000
G1 X-3.391 Y-2.185 E0.08861
G1 X-3.829 Y-2.623 E0.09238
G1 X-3.801 Y-2.856 E0.09381
G1 X-3.326 Y-2.381 E0.09790
G1 X-3.420 Y-2.735 E0.10013
G1 X-3.728 Y-3.044 E0.10279
G1 X-3.613 Y-3.190 E0.10392
G1 X-3.513 Y-3.090 E0.10479
G1 X-3.439 Y-3.087 F300.000
M106 S255
G1 X-0.404 Y-4.503 E0.12581 F150.000
M106 S191.25
G1 X-0.630 Y-2.938 F300.000
M106 S255
G1 X1.240 Y-3.810 E0.13876 F150.000
G1 X1.490 Y-3.634 E0.14068
G1 X0.236 Y-3.049 E0.14937
M106 S191.25
G1 X0.861 Y-3.049 F300.000
M106 S255
G1 X1.782 Y-3.479 E0.15575 F150.000
G1 X2.059 Y-3.316 E0.15776
G1 X1.347 Y-2.984 E0.16269
G1 X1.767 Y-2.888 E0.16539
G1 X2.291 Y-3.132 E0.16903
G1 X2.156 Y-2.777 E0.17141
G1 X2.533 Y-2.953 E0.17403
G1 X2.636 Y-2.709 E0.17569
G1 X2.457 Y-2.626 E0.17693
M106 S191.25
G92 E0
G1 X-0.468 Y-3.725 F300.000
G1 X-0.592 Y-3.724 F300.000
G1 X-0.723 Y-3.732 F300.000
G1 X-0.790 Y-3.734 F300.000
G1 X-0.834 Y-3.722 F300.000
G1 X-1.205 Y-2.961 F300.000
M106 S255
G1 X1.015 Y-3.997 E0.01538 F150.000
G1 X0.740 Y-4.160 E0.01739
G1 X-2.200 Y-2.789 E0.03776
G1 X-2.689 Y-2.853 E0.04085
G1 X0.415 Y-4.300 E0.06235
G1 X0.046 Y-4.420 E0.06478
G1 X-3.371 Y-2.827 E0.08845
G1 X-3.298 Y-2.569 E0.09013
G1 X-2.981 Y-2.717 E0.09232
M106 S191.25
G1 X-2.996 Y-3.586 F300.000
M106 S255
G1 X-2.524 Y-3.806 E0.09559 F150.000
M106 S191.25
M106 S160.65
G1 Z1.140 F300.000
G1 X-2.428 Y-3.011 F300.000
G1 X-2.472 Y-3.116 E0.09620 F150.000
G1 X-2.435 Y-3.398 E0.09769
G1 X-2.408 Y-3.493 E0.09820
G1 X-2.303 Y-3.629 E0.09911
G1 X-2.206 Y-3.670 E0.09966
G1 X-1.797 Y-3.987 E0.10238
G1 X-1.435 Y-4.209 E0.10461
G1 X-1.130 Y-4.435 E0.10661
G1 X-1.010 Y-4.487 E0.10729
G1 X-0.805 Y-4.529 E0.10839
G1 X-0.442 Y-4.544 E0.11030
G1 X0.195 Y-4.464 E0.11367
G1 X0.570 Y-4.335 E0.11576
G1 X0.970 Y-4.120 E0.11814
G1 X1.432 Y-3.793 E0.12111
G1 X2.051 Y-3.474 E0.12478
G1 X2.474 Y-3.132 E0.12763
G1 X2.930 Y-2.838 E0.13048
M106 S255
G1 X3.184 Y-2.608 E0.13235 F150.000
G1 X3.451 Y-2.273 E0.13469
G1 X3.576 Y-2.078 E0.13595
G1 X3.719 Y-1.712 E0.13810
G1 X3.820 Y-1.108 E0.14144
G1 X3.898 Y-0.180 E0.14652
G1 X3.906 Y0.789 E0.15181
G1 X3.853 Y1.597 E0.15622
G1 X3.771 Y1.995 E0.15844
G1 X3.711 Y2.167 E0.15943
G1 X3.585 Y2.410 E0.16092
G1 X2.930 Y3.319 E0.16704
M106 S160.65
G1 X2.571 Y3.774 E0.17008 F150.000
G1 X2.333 Y3.991 E0.17178
G1 X2.073 Y4.168 E0.17343
G1 X1.544 Y4.427 E0.17652
G1 X1.227 Y4.528 E0.17827
G1 X0.688 Y4.632 E0.18116
G1 X0.070 Y4.668 E0.18441
G1 X-0.465 Y4.660 E0.18721
G1 X-0.688 Y4.628 E0.18840
G1 X-0.824 Y4.583 E0.18915
G1 X-0.649 Y4.514 E0.19013
G1 X0.028 Y4.163 E0.19414
G1 X0.464 Y3.804 E0.19711
G1 X1.074 Y3.152 E0.20180
M106 S255
G1 X1.288 Y2.955 E0.20339 F150.000
G1 X1.576 Y2.789 E0.20520
G1 X2.097 Y2.379 E0.20882
G1 X2.304 Y2.272 E0.21009
G1 X2.528 Y2.219 E0.21135
G1 X2.714 Y2.112 E0.21252
G1 X3.144 Y1.614 E0.21611
G1 X3.247 Y1.441 E0.21720
G1 X3.299 Y1.288 E0.21809
G1 X3.404 Y0.475 E0.22256
G1 X3.364 Y0.143 E0.22438
G1 X3.246 Y-0.264 E0.22670
G1 X3.310 Y-0.628 E0.22871
G1 X3.294 Y-0.856 E0.22996
G1 X3.204 Y-1.235 E0.23208
G1 X3.113 Y-1.430 E0.23325
G1 X3.002 Y-1.596 E0.23435
G1 X2.548 Y-2.068 E0.23792
G1 X2.309 Y-2.255 E0.23958
G1 X2.109 Y-2.342 E0.24076
G1 X1.801 Y-2.402 E0.24248
G1 X1.408 Y-2.387 E0.24463
G1 X1.102 Y-2.422 E0.24630
G1 X0.717 Y-2.521 E0.24847
G1 X0.273 Y-2.715 E0.25112
M106 S160.65
G1 X-0.029 Y-2.847 E0.25284 F150.000
G1 X-0.518 Y-2.871 E0.25542
G1 X-0.916 Y-2.951 E0.25755
G1 X-1.208 Y-2.985 E0.25910
G1 X-1.347 Y-2.977 E0.25983
G1 X-1.731 Y-2.868 E0.26193
G1 X-2.062 Y-2.875 E0.26367
G1 X-2.334 Y-2.942 E0.26514
G1 X-2.404 Y-2.993 E0.26559
G1 X-2.312 Y-3.205 F300.000
M106 S255
G1 X-2.199 Y-3.538 E0.26768 F150.000
G1 X-1.836 Y-3.805 E0.27035
G1 X-2.115 Y-2.978 E0.27554
G1 X-1.848 Y-2.961 E0.27713
G1 X-1.481 Y-4.047 E0.28394
G1 X-1.126 Y-4.289 E0.28649
G1 X-1.554 Y-3.022 E0.29444
G1 X-1.263 Y-3.074 E0.29619
G1 X-0.806 Y-4.430 E0.30469
G1 X-0.526 Y-4.449 E0.30636
G1 X-0.999 Y-3.050 E0.31513
G1 X-0.741 Y-3.005 E0.31669
G1 X-0.256 Y-4.440 E0.32568
G1 X0.005 Y-4.406 E0.32725
G1 X-0.483 Y-2.959 E0.33632
G1 X-0.215 Y-2.946 E0.33792
G1 X0.253 Y-4.332 E0.34661
G1 X0.498 Y-4.249 E0.34815
G1 X0.046 Y-2.909 E0.35655
G1 X0.298 Y-2.845 E0.35809
G1 X0.737 Y-4.145 E0.36624
G1 X0.965 Y-4.013 E0.36781
G1 X0.522 Y-2.702 E0.37603
G1 X0.761 Y-2.600 E0.37758
G1 X1.185 Y-3.857 E0.38546
G1 X1.408 Y-3.707 E0.38705
G1 X1.012 Y-2.535 E0.39440
G1 X1.271 Y-2.492 E0.39596
G1 X1.640 Y-3.587 E0.40283
G1 X1.873 Y-3.467 E0.40438
G1 X1.541 Y-2.484 E0.41054
G1 X1.816 Y-2.489 E0.41217
G1 X2.096 Y-3.319 E0.41738
G1 X2.311 Y-3.146 E0.41902
G1 X2.072 Y-2.439 E0.42345
G1 X2.314 Y-2.348 E0.42499
G1 X2.531 Y-2.989 E0.42901
G1 X2.755 Y-2.846 E0.43060
G1 X2.535 Y-2.194 E0.43468
G1 X2.792 Y-2.145 E0.43623
G1 X2.971 Y-2.675 E0.43956
G1 X3.173 Y-2.464 E0.44130
G1 X2.946 Y-1.792 E0.44551
G1 X3.144 Y-1.569 E0.44728
G1 X3.363 Y-2.219 E0.45136
G1 X3.526 Y-1.893 E0.45352
G1 X3.313 Y-1.262 E0.45748
G1 X3.639 Y-1.420 E0.45963
G1 X3.431 Y-0.804 E0.46350
G1 X3.711 Y-0.823 E0.46516
G1 X3.440 Y-0.022 E0.47019
G1 X3.760 Y-0.160 E0.47226
G1 X3.537 Y0.500 E0.47640
G1 X3.767 Y0.628 E0.47797
G1 X2.942 Y3.072 E0.49329
M106 S160.65
G1 X3.483 Y2.278 F300.000
M106 S255
G1 X3.671 Y1.720 E0.49679 F150.000
M106 S160.65
G1 X3.059 Y1.917 F300.000
M106 S255
G1 X2.458 Y3.697 E0.50796 F150.000
G1 X2.074 Y4.026 E0.51096
G1 X2.667 Y2.269 E0.52198
G1 X2.361 Y2.367 E0.52389
G1 X1.738 Y4.210 E0.53546
G1 X1.414 Y4.362 E0.53758
G1 X2.008 Y2.603 E0.54861
G1 X1.641 Y2.881 E0.55135
G1 X1.111 Y4.452 E0.56120
G1 X0.819 Y4.508 E0.56296
G1 X1.284 Y3.130 E0.57160
M106 S160.65
G1 X0.863 Y3.568 F300.000
M106 S255
G1 X0.532 Y4.548 E0.57775 F150.000
G1 X0.253 Y4.564 E0.57941
G1 X0.453 Y3.972 E0.58312
G1 X0.083 Y4.259 E0.58590
G1 X-0.024 Y4.576 E0.58789
M106 S160.65
G92 E0
G1 X0.988 Y3.093 F300.000
G1 X-1.720 Y0.785 F300.000
